X:22
T:Arkansas Traveler
M:4/4
L:1/8
K:G
GB AG E2 E2|D2 D2 G4|A2 A2 B2 B2|AB AG E2 D2|
GB AG E2 E2|D2 D2 G3 d|gf ge de dc|1B2 A2 G4:|2B2 A2 G2||
Bc|dc Bd cB Ac|BA GB A2 D2|G2 G2 A2 A2|BA GB A2 Bc|
dc Bd cB Ac|BA GB A2 d2|gf ge de dc|1B2 A2 G2:|2B2 A2 G4||
